svgs/regular/calendar-days.svg

<svg xmlns="http://www.w3.org/2000/svg" viewBox="0 0 448 512"><!--! Font Awesome Pro 6.4.2 by @fontawesome - https://fontawesome.com License - https://fontawesome.com/license (Commercial License) Copyright 2023 Fonticons, Inc. --><path d="M152 24c0-13.3-10.7-24-24-24s-24 10.7-24 24V64H64C28.7 64 0 92.7 0 128v16 48V448c0 35.3 28.7 64 64 64H384c35.3 0 64-28.7 64-64V192 144 128c0-35.3-28.7-64-64-64H344V24c0-13.3-10.7-24-24-24s-24 10.7-24 24V64H152V24zM48 192h80v56H48V192zm0 104h80v64H48V296zm128 0h96v64H176V296zm144 0h80v64H320V296zm80-48H320V192h80v56zm0 160v40c0 8.8-7.2 16-16 16H320V408h80zm-128 0v56H176V408h96zm-144 0v56H64c-8.8 0-16-7.2-16-16V408h80zM272 248H176V192h96v56z"/></svg>

<svg xmlns="http://www.w3.org/2000/svg" viewBox="0 0 448 512"><!--! Font Awesome Pro 6.6.0 by @fontawesome - https://fontawesome.com License - https://fontawesome.com/license (Commercial License) Copyright 2024 Fonticons, Inc. --><path d="M152 24c0-13.3-10.7-24-24-24s-24 10.7-24 24l0 40L64 64C28.7 64 0 92.7 0 128l0 16 0 48L0 448c0 35.3 28.7 64 64 64l320 0c35.3 0 64-28.7 64-64l0-256 0-48 0-16c0-35.3-28.7-64-64-64l-40 0 0-40c0-13.3-10.7-24-24-24s-24 10.7-24 24l0 40L152 64l0-40zM48 192l80 0 0 56-80 0 0-56zm0 104l80 0 0 64-80 0 0-64zm128 0l96 0 0 64-96 0 0-64zm144 0l80 0 0 64-80 0 0-64zm80-48l-80 0 0-56 80 0 0 56zm0 160l0 40c0 8.8-7.2 16-16 16l-64 0 0-56 80 0zm-128 0l0 56-96 0 0-56 96 0zm-144 0l0 56-64 0c-8.8 0-16-7.2-16-16l0-40 80 0zM272 248l-96 0 0-56 96 0 0 56z"/></svg>
